src/topics/icons/gradle.svg

<svg height="257" preserveAspectRatio="xMidYMid" viewBox="0 0 256 257" width="256" xmlns="http://www.w3.org/2000/svg"><path d="m105.609463 45.7403268h72.158132l36.40081 63.0487162h41.568622c-9.463035-61.446973-62.564607-108.49817919-126.660233-108.49817919-16.209681 0-31.7021636 3.03912841-45.977401 8.52968094z" fill="#006533"/><path d="m216.097868 146.762708-38.330273 66.390662h-96.6554394l-48.3272217-83.706024 38.6101789-66.8757662-21.3316731-34.9873308c-29.9101634 23.4623502-49.15000779 59.9079845-49.15000779 100.869977 0 70.782506 57.38085599 128.163362 128.16336209 128.163362 64.563797 0 117.953245-47.748483 126.840529-109.85488z" fill="#82b816"/><path d="m174.510319 128.114553c0 25.280249-20.492949 45.773198-45.773198 45.773198-25.279253 0-45.7722027-20.492949-45.7722027-45.773198 0-25.279253 20.4929497-45.7722028 45.7722027-45.7722028 25.280249 0 45.773198 20.4929498 45.773198 45.7722028" fill="#006532"/></svg>

<?xml version="1.0" encoding="UTF-8" standalone="no"?>
<svg width="256px" height="257px" viewBox="0 0 256 257" version="1.1" xmlns="http://www.w3.org/2000/svg" xmlns:xlink="http://www.w3.org/1999/xlink" preserveAspectRatio="xMidYMid">
    <g>
        <path d="M105.609463,45.7403268 L177.767595,45.7403268 L214.168405,108.789043 L255.737027,108.789043 C246.273992,47.34207 193.17242,0.290863813 129.076794,0.290863813 C112.867113,0.290863813 97.3746304,3.32999222 83.099393,8.82054475 L105.609463,45.7403268" fill="#006533"></path>
        <path d="M216.097868,146.762708 L177.767595,213.15337 L81.1121556,213.15337 L32.7849339,129.447346 L71.3951128,62.5715798 L50.0634397,27.584249 C20.1532763,51.0465992 0.913431907,87.4922335 0.913431907,128.454226 C0.913431907,199.236732 58.2942879,256.617588 129.076794,256.617588 C193.640591,256.617588 247.030039,208.869105 255.917323,146.762708 L216.097868,146.762708" fill="#82B816"></path>
        <path d="M174.510319,128.114553 C174.510319,153.394802 154.01737,173.887751 128.737121,173.887751 C103.457868,173.887751 82.9649183,153.394802 82.9649183,128.114553 C82.9649183,102.8353 103.457868,82.3423502 128.737121,82.3423502 C154.01737,82.3423502 174.510319,102.8353 174.510319,128.114553" fill="#006532"></path>
    </g>
</svg>
